static/images/plans/wpcom/plan-ecommerce-circle.svg

<svg height="72" viewBox="0 0 72 72" width="72" xmlns="http://www.w3.org/2000/svg" xmlns:xlink="http://www.w3.org/1999/xlink"><defs><circle id="a" cx="36" cy="36" r="36"/><path id="b" d="m4.5 29.8771834c-1.65269304-8.225042-4.5-22.93786005-4.5-25.8771834v-4h24v4c0 2.93932335-2.847307 17.6521414-4.5 25.8771834 2.6080901 3.1228166 2.6080901 6.4742759 2 10.1228166-.9151524 5.4909145-6.5 15-8.5 18h-2c-2-3-7.5-12-8.5-18-.60809011-3.6485407-.60809011-7 2-10.1228166zm7.488761 8.1228166c-1.5112265 0-1.4887548 1-1.4887548 2 0 .6666667.425091 5.3358287 1.2752728 14.007486.0057714.1539046.0980542.2769491.213482.2846444.1241082.0082739.2297483-.1191657.2359537-.2846444.8501819-8.6716573 1.2752728-13.3408193 1.2752728-14.007486 0-1 0-2-1.5112265-2z"/><mask id="c" fill="#fff"><use fill="#fff" fill-rule="evenodd" xlink:href="#a"/></mask><mask id="d" fill="#fff"><path d="m0 0h72v72h-72z" fill="#fff" fill-rule="evenodd"/></mask><mask id="e" fill="#fff"><use fill="#fff" fill-rule="evenodd" xlink:href="#b"/></mask></defs><g fill="none" fill-rule="evenodd"><use fill="#aa5fe6" fill-rule="nonzero" xlink:href="#a"/><path d="m-1 54h28.5l-27.5 8z" fill="#8051b4" fill-rule="nonzero" mask="url(#c)"/><g mask="url(#c)"><g fill="none" fill-rule="evenodd" mask="url(#d)" transform="matrix(.8660254 .5 -.5 .8660254 22.823085 -13.176915)"><g fill-rule="evenodd" transform="translate(24 -4)"><use fill="#fff" xlink:href="#b"/><path d="m0 0h24v26h-24z" fill="#4b3264" mask="url(#e)"/><path d="m0-5h24v25h-24z" fill="#634581" mask="url(#e)"/></g></g></g></g></svg>

<?xml version="1.0" encoding="UTF-8"?><svg width="72px" height="72px" viewBox="0 0 72 72" version="1.1" xmlns="http://www.w3.org/2000/svg" xmlns:xlink="http://www.w3.org/1999/xlink"><defs><circle id="path-1" cx="36" cy="36" r="36"></circle><rect id="path-3" x="0" y="0" width="72" height="72"></rect><path d="M4.5,29.8771834 C2.84730696,21.6521414 2.27373675e-13,6.93932335 2.27373675e-13,4 L2.27373675e-13,-9.09494702e-13 L24,-9.09494702e-13 L24,4 C24,6.93932335 21.152693,21.6521414 19.5,29.8771834 C22.1080901,33 22.1080901,36.3514593 21.5,40 C20.5848476,45.4909145 15,55 13,58 L11,58 C9,55 3.5,46 2.5,40 C1.89190989,36.3514593 1.89190989,33 4.5,29.8771834 Z M11.988761,38 C10.4775345,38 10.5000062,39 10.5000062,40 C10.5000062,40.6666667 10.9250972,45.3358287 11.775279,54.007486 C11.7810504,54.1613906 11.8733332,54.2844351 11.988761,54.2921304 C12.1128692,54.3004043 12.2185093,54.1729647 12.2247147,54.007486 C13.0748966,45.3358287 13.4999875,40.6666667 13.4999875,40 C13.4999875,39 13.4999875,38 11.988761,38 Z" id="path-5"></path></defs><g id="Plan/E-commerce" stroke="none" stroke-width="1" fill="none" fill-rule="evenodd"><g id="plan"><mask id="mask-2" fill="white"><use xlink:href="#path-1"></use></mask><use id="bg" fill="#AA5FE6" fill-rule="nonzero" xlink:href="#path-1"></use><polygon id="line" fill="#8051B4" fill-rule="nonzero" mask="url(#mask-2)" points="-1 54 27.5 54 -7.31636973e-14 62"></polygon><g id="icon" mask="url(#mask-2)"><g transform="translate(36.000000, 36.000000) rotate(30.000000) translate(-36.000000, -36.000000) "><mask id="mask-4" fill="white"><use xlink:href="#path-3"></use></mask><g id="bounds" stroke="none" fill="none"></g><g id="pen" stroke="none" stroke-width="1" fill="none" fill-rule="evenodd" mask="url(#mask-4)"><g transform="translate(24.000000, -4.000000)"><mask id="mask-6" fill="white"><use xlink:href="#path-5"></use></mask><use id="shape" stroke="none" fill="#FFFFFF" fill-rule="evenodd" xlink:href="#path-5"></use><rect id="alt" stroke="none" fill="#4B3264" fill-rule="evenodd" mask="url(#mask-6)" x="2.27373675e-13" y="0" width="24" height="26"></rect><rect id="alt" stroke="none" fill="#634581" fill-rule="evenodd" mask="url(#mask-6)" x="2.27373675e-13" y="-5" width="24" height="25"></rect></g></g></g></g></g></g></svg>
